images/phone.svg

<svg width="24" height="24" viewBox="0 0 24 24" fill="none" xmlns="http://www.w3.org/2000/svg">
<path fill-rule="evenodd" clip-rule="evenodd" d="M22.909 17.3673V20.64C22.9103 20.9438 22.848 21.2446 22.7263 21.5229C22.6046 21.8013 22.4261 22.0512 22.2022 22.2566C21.9783 22.462 21.714 22.6184 21.4262 22.7157C21.1384 22.813 20.8334 22.8492 20.5308 22.8218C17.1739 22.4571 13.9494 21.31 11.1163 19.4727C8.48047 17.7978 6.24575 15.5631 4.57084 12.9273C2.72718 10.0813 1.57983 6.8411 1.22175 3.46911C1.19448 3.16744 1.23034 2.86339 1.32702 2.57633C1.4237 2.28928 1.5791 2.0255 1.78331 1.80179C1.98752 1.57807 2.23608 1.39934 2.51315 1.27695C2.79023 1.15456 3.08975 1.09121 3.39265 1.09093H6.66538C7.19481 1.08572 7.70806 1.27319 8.10949 1.61842C8.51091 1.96364 8.7731 2.44305 8.8472 2.96729C8.98575 4.01456 9.24102 5.04329 9.61084 6.03274C9.75761 6.42321 9.78938 6.84756 9.70237 7.25552C9.61536 7.66348 9.41323 8.03796 9.11993 8.33456L7.73447 9.72002C9.28744 12.4512 11.5488 14.7125 14.2799 16.2655L15.6654 14.88C15.962 14.5867 16.3365 14.3846 16.7444 14.2976C17.1524 14.2106 17.5767 14.2423 17.9672 14.3891C18.9567 14.7589 19.9854 15.0142 21.0327 15.1527C21.5626 15.2275 22.0465 15.4944 22.3925 15.9027C22.7385 16.3111 22.9223 16.8323 22.909 17.3673Z" stroke="#F7931E" stroke-width="2" stroke-linecap="round" stroke-linejoin="round"/>
</svg>

<svg width="24" height="24" fill="none" xmlns="http://www.w3.org/2000/svg"><path clip-rule="evenodd" d="M22.909 17.367v3.273a2.18 2.18 0 0 1-2.378 2.182 21.588 21.588 0 0 1-9.415-3.35 21.273 21.273 0 0 1-6.545-6.545A21.59 21.59 0 0 1 1.22 3.47a2.182 2.182 0 0 1 2.172-2.378h3.272a2.182 2.182 0 0 1 2.182 1.876 14 14 0 0 0 .764 3.066 2.182 2.182 0 0 1-.491 2.302L7.734 9.72a17.455 17.455 0 0 0 6.546 6.545l1.385-1.385a2.182 2.182 0 0 1 2.302-.49c.99.369 2.018.624 3.066.763a2.182 2.182 0 0 1 1.876 2.214Z" stroke="#F7931E" stroke-width="2" stroke-linecap="round" stroke-linejoin="round"/></svg>
